X:1
T:(unknown title)
M:4/4
L:1/8
K:Bb
 z4 z2 F2| G3 A B2 A2|(2G21.333334/16G21.333334/16F21.333334/16 G21.333334/16 D2 D2|\
 G2G-A B2 f2| d4 z2 Bc| d3/2- c/2 Bc d2 GB| cc AF D2 Bc| d3/2- e/2 dcB-G AF|\
 G6 z2|

